packages/dnb-eufemia/assets/icons/copy_medium.svg

<svg width="24" height="24" viewBox="0 0 24 24" fill="none" xmlns="http://www.w3.org/2000/svg">
<path d="M11.6905 1H4C3.44772 1 3 1.44411 3 1.9964C3 7.12044 3 15.7171 3 18.622C3 19.1743 3.44772 19.6154 4 19.6154H15.1429C15.6951 19.6154 16.1429 19.1677 16.1429 18.6154V5.65385M11.6905 1L16.1429 5.65385M11.6905 1C11.6905 1.98971 11.6905 3.61084 11.6905 4.65486C11.6905 5.20715 12.1382 5.65385 12.6905 5.65385H16.1429M21 9.03846H19.5714M21 9.03846L19.5714 7.5M21 9.03846C21 13.359 21 17.6795 21 22C21 22.5523 20.5523 23 20 23H8.66667C8.33757 23 8.05433 22.7947 7.92776 22.5" stroke="black" stroke-width="1.5" stroke-linecap="round" stroke-linejoin="round"/>
</svg>

<svg width="24" height="24" viewBox="0 0 24 24" fill="none" xmlns="http://www.w3.org/2000/svg"><path d="M11.69 1H4c-.552 0-1 .444-1 .996v16.626c0 .552.448.993 1 .993h11.143a1 1 0 0 0 1-1V5.654M11.69 1l4.453 4.654M11.69 1v3.655a1 1 0 0 0 1 .999h3.453M21 9.038h-1.429m1.429 0L19.571 7.5M21 9.038V22a1 1 0 0 1-1 1H8.667a.81.81 0 0 1-.74-.5" stroke="#000" stroke-width="1.5" stroke-linecap="round" stroke-linejoin="round"/></svg>
